X:1
T:Hi sunt quos retinens
T:Francisco Guerrero (1528-1599)
T:Second verse of hymn "Sanctorum meritis" attributed to Rabanus Maurus
T:Hi sunt quos retinens
T:Commune plurimorum Martyrum Hymnus. Sanctorum meritis. Quatuor vocibus
C:Francisco Guerrero (1528-1599)
Z:Second verse of hymn "Sanctorum meritis"
Z:attributed to Rabanus Maurus
%%score [ 1 2 3 4 ]
L:1/8
M:2/2
K:C
V:1 treble nm="Cantus" snm="S."
V:2 alto2 nm="Altus" snm="A."
V:3 alto transpose=-12 nm="Tenor" snm="T."
V:4 tenor nm="Bassus" snm="B."
V:1
 x8 |[M:2/2] z8 | d4 G4 | (d4 e4) | c4 B4 | c8- | c8 | z4 (c4 | B4) A4 | G3 A B2 G2- | G2 ^F2 G4 | %11
w: ||Hi sunt|quos _|re- ti-|nens|_|mun-|* dus|in _ _ hor-|* ru- it|
 z8 | z8 | d8- | d4 c4 | g8 | f4 e4 | f4 (f4 | e4) d4- | d2 c2 e2 f2- | fe d4 ^c2 | d8- | d8 | %23
w: ||ip-|* sum|nam|ste- ri-|li, flo-|* re|_ per a- *|* * * ri-|dum|_|
 z4 d4 | G4 d4 | e2 c4 B2 | c4 z4 | (c4 B4) | A6 G2 | A2 B2 G4 | (B4 d4) | B4 c4 | A6 G2 | %33
w: spre-|ve- re|pe- * ni-|tus,|te _|que se-|cu- ti sunt|rex _|Chris- te|bo- ne|
 (A4 =B4) | A2 G4 ^F2 | G8 |] %36
w: cae- *|* * li-|tus.|
V:2
 x8 |[M:2/2][K:treble] z8 | z8 | z8 | G8 | C4 G4 | A2 F4 E2 | F2 (A4 G2- | G2) F4 ED | E4 z4 | %10
w: ||||Hi|sunt quos|re- * ti-|nens mun- *|* dus _ _|_|
 (c4 B4) | A3 G A2 =B2 | A2 G4 ^F2 | G4 z2 B2- | B2 B2 A2 c2- | c2 BA B2 G2 | A8 | z2 A2 _B2 F2 | %18
w: mun- *|dus _ _ in-|hor- * ru-|it ip-|* sum nam ste-|* * * * ri-|li|flo- re per|
 G2 AG FE D2 | z2 A4 A2 | A4 A4 | A3 G FE G2- | G2 ^F2 G4- | G4 G2 G2 | E2 F2 G3 F | E2 D4 E2- | %26
w: a- ri- * * * dum,|flo- re|per a-|ri- * * * *|* * dum|_ spre- ve-|re pe- * *|* ni- tus,|
 E2 z2 z4 | z4 (G4 | F4) E3 E | F2 D2 E4 | D2 G4 F2 | G3 G E2 F2 | E2 A,2 C2 D2 | E2 F2 G4 | %34
w: _|te|_ que se-|cu- ti sunt|rex Chris- te|bo- ne cae- li-|tus. bo- * *|* ne cae-|
 (E4 D4) | D8 |] %36
w: li- *|tus.|
V:3
 x8 |[M:2/2][K:treble-8] d4 G4 | d4 e2 c2- | c2 B2 c2 e2 | e4 d2 e2- | e2 AB cd e2 | A3 B c4 | %7
w: |Hi sunt|quos re- *|* ti- nens, hi|sunt quos re-||* ti- nens,|
 z2 (f4 e2- | e2) d4 c2- | cdec d4 | e2 c2 d4 | f4 f2 d2 | e3 d e2 c2- | c2 BA B2 g2- | %14
w: mun- *|* dus in-||hor- ru- it,|mun- dus in-|hor- * * *|* ru- * it, ip-|
 g2 d2 f2 e2- | e2 dc d2 d2 | (d4 A4) | z8 | z4 (f4 | e3) d c4 | d2 f2 e2 e2 | d4 z4 | d8 | G4 d4 | %24
w: sum nam ste- *|* * * * ri-|li _||flo-||re per a- ri-|dum|spre-|ve- re|
 e2 c4 B2 | (c4 G4) | z2 (g4 f2- | f2) e4 dc | d2 c2 c4- | c2 B2 c4 | z8 | z2 d2 c2 AB | %32
w: pe- * ni-|tus _|te _|_ que _ _|_ se- cu-|* ti sunt,||rex Chris- te, _|
 cd e2 A2 d2- | d2 c2 d4 | c4 A3 A | G8 |] %36
w: _ _ _ rex Chris-|* te bo-|ne cae- li-|tus.|
V:4
 x8 |[M:2/2][K:bass] z8 | z8 | G,4 C,4- | C,4 G,4 | A,2 F,4 E,2 | F,4 C,4 | F,4 z4 | z8 | %9
w: |||Hi sunt|_ quos|re- * *|* ti-|nens||
 (C4 B,4) | A,2 A,2 G,3 G, | D,2 D3 D G,2 | C3 B, A,2 A,2 | G,8 | z2 G,2 A,4 | E,2 G,3 F, G,2 | %16
w: mun- *|dus in- hor- ru-|it, mun- dus in-|hor- * * ru-|it,|ip- sum|nam ste- ri- *|
 D,2 D4 ^C2 | D8 | z2 A,2 _B,2 F,2 | G,2 A,3 G,F,E, | D,4 A,4 | D,4 z4 | z4 G,4 | G,2 E,2 F,2 G,2 | %24
w: li ste- ri-|li|flo- re per|a- * * * *|* ri-|dum|spre-|ve- re pe- ni-|
 E,4 D,2 G,2 | C,4 z4 | (C4 B,4) | A,3 G, E,F, G,2 | D,E,F,G, A,B, C2 | F,2 G,2 C,2 C2 | %30
w: tus, pe- ni-|tus|te _|que _ _ _ _|se- * * * * * *|cu- ti sunt, rex|
 B,2 G,A, B,C D2 | G,4 A,2 F,G, | A,B, C4 B,2 | A,2 A,2 G,4 | C,4 D,4 | G,8 |] %36
w: Chris- te _ _ _ _|bo- ne cae- *||* li- tus|cae- li-|tus.|

